X:5
T:Leaving Lismore
Z:Jack Campin, 2006, http://www.campin.me.uk/
M:3/4
L:1/4
Q:3/4=60
K:D
   D>EF|A2d|BAF|A2F|D>EF|A2A|B   AF |E2F|
   D>EF|A2d|BAF|A3 |A Bd|F2E|F/E/D2-|D3:|
   d>cd|B2A|BAF|A3 |d>cd|B2A|B   AF |E3 |
[1 d>cd|B2A|BAF|A3 |A Bd|F2E|F/E/D2-|D3:|
[2 D>EF|A2d|BAF|A3 |A Bd|F2E|F/E/D2-|D3|]


% Marches
% -------

